X:141
T:Paddy's Rambles Through the Park (air)
B:NFID.096b
141paddys_r
S:JD
L:1/8
M:3/4
R:air 3/4
Q:120
K:Em
A/G/F/G/|[E2A,2][A2E2][A2E2]|G2 B2 BA|BG3 G2|G4 AG|
[E2A,2][A2E2][AE]B|c4 BA|^GE3 [E2B,2]|[E4B,4]||^cd|
e2ed ^c<e|d2 d^c Bd|^c2 cB Ac|B4 EF|
G3B e^c|d3e f^d|e2 E2 ^G2|[A4E4] z2|]
%
"VAR" [E2A,2]|[A2E2]a2a2|[M:C]A2g2g2BA|[M:3/4]BG3G2|G4B^A|A2a2a2|
[M:C] A2g2g2BA|[M:3/4] ^GE3 [E2B,2]|[E4B,4]z2 "_etc"||

%%%

